X: 50
T:Spanish Minuet (1)
M:6/8
L:1/8
Q:130
C:Trad
S:Blodau'r Grug Collection Vol. 1
R:Jig
A:Wales
Z:brian_martin12345@yahoo.com
K:D
A|d2Ad2e|df2-f2d|g2fe2d|cecA2A|d2Ad2e|df2-f2a|gfdf2e|d3d2:||!
f|a2gf2d|gfge2e|f2fd2d|cecA2e|a2gf2d|gfge2g|fedA2c|d3d2:||

